svg/black/sib.svg

<svg width="32" height="32" viewBox="0 0 32 32" version="1.1" xmlns="http://www.w3.org/2000/svg" xmlns:xlink="http://www.w3.org/1999/xlink"><title>svg/black/sib</title><desc>Created with Sketch.</desc><g id="black/sib" stroke="none" stroke-width="1" fill="none" fill-rule="evenodd"><path d="M16,32 C7.163444,32 0,24.836556 0,16 C0,7.163444 7.163444,0 16,0 C24.836556,0 32,7.163444 32,16 C32,24.836556 24.836556,32 16,32 Z M16,4 C9.372583,4 4,9.372583 4,16 C4,22.627417 9.372583,28 16,28 C22.627417,28 28,22.627417 28,16 C28,12.8174021 26.7357179,9.76515517 24.4852814,7.51471863 C22.2348448,5.26428208 19.1825979,4 16,4 Z M20.1756098,20.5268293 L19.6878049,20.5268293 L19.6878049,23.2585366 L18.0487805,23.2585366 L18.0487805,20.5268293 L15.5512195,20.5268293 L15.5512195,19.5121951 L18.0878049,19.5121951 L18.0878049,17.6780488 C16.7706916,18.4121705 15.2377076,18.6607625 13.7560976,18.3804878 C12.9365854,18.1853659 12.1170732,17.7365854 11.6878049,16.995122 C11.2803531,16.2694183 11.0780058,15.446539 11.102439,14.6146341 L11.102439,10.2829268 L12.7609756,10.2829268 L12.7609756,14.7707317 C12.8,15.7463415 13.4243902,16.7219512 14.3804878,17.0146341 C15.6391996,17.3037852 16.9609873,17.0939776 18.0682927,16.4292683 C18.0682927,15.0634146 18.0487805,13.0146341 18.0682927,10.2829268 L19.7463415,10.2829268 L19.7463415,19.5121951 L20.1756098,19.5121951 L20.1756098,20.5268293 Z" id="Combined-Shape-Copy" fill="#000" fill-rule="nonzero"/></g></svg>

<svg width="32" height="32" viewBox="0 0 32 32" xmlns="http://www.w3.org/2000/svg"><path d="M16 32C7.163 32 0 24.837 0 16S7.163 0 16 0s16 7.163 16 16-7.163 16-16 16zm0-28C9.373 4 4 9.373 4 16s5.373 12 12 12 12-5.373 12-12A12 12 0 0 0 16 4zm4.176 16.527h-.488v2.732h-1.64v-2.732h-2.497v-1.015h2.537v-1.834a6.439 6.439 0 0 1-4.332.702c-.82-.195-1.639-.643-2.068-1.385a4.587 4.587 0 0 1-.586-2.38v-4.332h1.659v4.488c.039.975.663 1.951 1.62 2.244a4.991 4.991 0 0 0 3.687-.586c0-1.366-.02-3.414 0-6.146h1.678v9.23h.43v1.014z"/></svg>
